<?xml version="1.0" encoding="UTF-8"?>
<map version="1.10" tiledversion="1.10.2" orientation="orthogonal" renderorder="right-down" width="40" height="30" tilewidth="64" tileheight="64" infinite="0" nextlayerid="5" nextobjectid="60">
 <tileset firstgid="1" source="Mars Tileset.tsx"/>
 <layer id="2" name="Floor" width="40" height="30">
  <data encoding="csv">
0,0,0,0,0,0,0,0,0,0,0,0,0,0,0,0,0,0,0,0,0,0,0,0,0,0,0,0,0,0,0,0,0,0,0,0,0,0,0,0,
0,0,0,0,0,0,0,0,0,0,0,0,0,0,0,0,0,0,0,0,0,0,0,0,0,0,0,0,0,0,0,0,0,0,0,0,0,0,0,0,
0,1,1,1,1,1,1,1,1,1,1,1,1,1,1,1,1,1,1,1,1,1,1,1,1,1,1,1,1,1,1,1,1,1,1,1,1,1,1,0,
0,1,1,1,1,1,1,1,1,1,1,1,1,1,1,1,1,2,1,1,1,3,1,1,1,2,1,2,1,1,1,1,1,1,1,1,1,1,1,0,
0,1,1,1,1,1,1,1,1,1,1,1,1,1,1,1,1,1,1,1,1,1,1,1,1,1,1,2,2,1,1,1,1,1,1,1,1,1,1,0,
0,1,1,1,1,1,1,1,1,1,1,1,1,1,2,1,1,1,1,1,1,2,1,1,1,1,1,1,1,1,1,1,1,1,1,1,1,1,1,0,
0,1,1,1,1,1,1,1,1,1,1,1,1,1,1,1,1,1,1,1,1,1,1,1,1,1,1,2,1,1,1,1,1,1,1,1,1,1,1,0,
0,1,1,1,1,1,1,1,1,1,1,1,1,1,1,1,1,1,1,1,1,1,1,1,1,1,1,1,1,1,1,1,1,1,1,1,1,1,1,0,
0,1,1,1,1,1,1,1,1,1,1,1,1,1,1,1,1,1,2,1,1,1,1,1,2,1,1,1,1,1,1,1,1,1,1,1,1,1,1,0,
0,1,1,1,1,1,1,1,1,1,1,1,1,1,1,1,1,1,1,1,1,1,1,1,1,1,1,1,1,1,1,1,1,1,1,1,1,1,1,0,
0,1,1,1,1,1,1,1,1,1,1,1,1,1,1,1,1,1,1,1,1,1,1,1,1,1,1,1,1,1,1,1,1,1,1,1,1,1,1,0,
0,1,1,1,1,1,1,2,1,1,1,1,1,1,1,1,1,1,1,1,1,1,1,2,1,1,1,1,1,1,1,1,1,1,1,1,1,1,1,0,
0,1,1,1,1,1,1,1,1,1,1,1,1,1,1,1,1,1,1,1,1,1,1,1,1,1,1,1,1,1,1,1,1,1,1,1,2,1,1,0,
0,1,1,1,1,1,1,1,1,1,1,1,1,2,1,1,1,1,1,1,1,1,1,1,1,1,1,1,1,1,1,1,1,1,1,1,1,1,1,0,
0,1,1,2,1,1,1,1,2,1,1,1,1,1,1,1,1,1,1,1,1,1,1,1,1,1,1,1,1,1,1,1,2,1,1,1,1,2,1,0,
0,1,1,1,1,1,1,1,1,1,1,1,1,1,1,1,1,4,4,4,4,4,1,1,1,1,1,1,1,1,1,1,1,1,1,1,1,1,1,0,
0,1,1,1,1,3,1,1,1,1,1,2,1,1,1,1,2,4,4,3,4,4,2,1,1,1,1,1,1,1,1,1,1,1,1,1,3,1,1,0,
0,1,1,1,1,1,1,1,1,1,1,2,1,1,1,1,2,4,4,4,4,4,2,1,1,1,1,1,1,1,1,1,1,1,1,1,1,1,1,0,
0,1,1,1,1,1,1,1,1,1,1,1,1,1,1,1,1,4,4,4,4,4,1,1,1,1,1,1,1,2,1,1,1,1,1,1,1,1,1,0,
0,1,2,1,1,1,1,1,1,1,1,1,1,1,1,1,1,1,1,1,1,1,1,1,1,1,1,1,1,1,1,1,1,1,2,1,1,1,1,0,
0,1,1,1,1,1,1,1,2,1,1,1,1,1,1,1,1,1,1,1,1,1,1,1,1,1,1,1,1,1,1,1,1,1,1,1,1,2,1,0,
0,1,1,1,1,2,1,1,1,1,1,1,1,1,1,1,1,1,1,1,1,1,1,1,1,1,1,1,1,1,1,1,1,1,1,1,1,1,1,0,
0,1,1,1,1,1,1,1,1,1,1,1,1,1,1,1,1,1,1,1,1,1,1,1,1,1,1,1,1,1,1,1,1,1,1,1,1,1,1,0,
0,1,1,1,1,1,1,1,1,1,1,1,1,1,1,1,1,1,1,1,1,1,1,1,1,1,1,1,1,1,1,1,1,1,1,1,1,1,1,0,
0,1,1,1,1,1,1,1,1,1,1,1,1,1,1,1,1,1,1,1,1,1,1,1,1,1,1,1,1,1,1,1,1,1,1,1,1,1,1,0,
0,1,1,1,1,1,1,1,1,1,1,1,1,1,1,1,1,1,1,1,1,1,1,1,1,1,1,1,1,1,1,1,1,1,1,1,1,1,1,0,
0,1,1,1,1,1,1,1,1,1,1,1,1,1,1,1,1,1,1,1,1,1,1,1,1,1,1,1,1,1,1,1,1,1,1,1,1,1,1,0,
0,1,1,1,1,1,1,1,1,1,1,1,1,1,1,1,1,1,1,1,1,1,1,1,1,1,1,1,1,1,1,1,1,1,1,1,1,1,1,0,
0,1,1,1,1,1,1,1,1,1,1,1,1,1,1,1,1,1,1,1,1,1,1,1,1,1,1,1,1,1,1,1,1,1,1,1,1,1,1,0,
0,0,0,0,0,0,0,0,0,0,0,0,0,0,0,0,0,0,0,0,0,0,0,0,0,0,0,0,0,0,0,0,0,0,0,0,0,0,0,0
</data>
 </layer>
 <objectgroup id="4" name="Collisions" class="Walls">
  <object id="6" type="Walls" x="0" y="0" width="2560" height="128"/>
  <object id="7" type="Walls" x="0" y="128" width="64" height="1792"/>
  <object id="8" type="Walls" x="64" y="1840" width="2496" height="80"/>
  <object id="9" type="Walls" x="2480" y="128" width="80" height="1728"/>
  <object id="10" type="Walls" x="608" y="128" width="32" height="320"/>
  <object id="11" type="Walls" x="64" y="560" width="512" height="32"/>
  <object id="12" type="Walls" x="560" y="592" width="16" height="48"/>
  <object id="13" type="Walls" x="64" y="896" width="592" height="16"/>
  <object id="14" type="Walls" x="624" y="912" width="32" height="368"/>
  <object id="15" type="Walls" x="576" y="1264" width="256" height="32"/>
  <object id="16" type="Walls" x="224" y="1536" width="32" height="320"/>
  <object id="17" type="Walls" x="256" y="1696" width="192" height="32"/>
  <object id="18" type="Walls" x="672" y="1472" width="32" height="64"/>
  <object id="19" type="Walls" x="640" y="1520" width="320" height="32"/>
  <object id="20" type="Walls" x="624" y="1552" width="32" height="304"/>
  <object id="21" type="Walls" x="1312" y="1728" width="32" height="128"/>
  <object id="22" type="Walls" x="1056" y="128" width="32" height="704"/>
  <object id="23" type="Walls" x="752" y="496" width="320" height="32"/>
  <object id="24" type="Walls" x="1088" y="432" width="256" height="32"/>
  <object id="25" type="Walls" x="1056" y="816" width="368" height="96"/>
  <object id="26" type="Walls" x="1056" y="912" width="32" height="112"/>
  <object id="27" type="Walls" x="1392" y="912" width="32" height="112"/>
  <object id="28" type="Walls" x="1392" y="1152" width="32" height="64"/>
  <object id="29" type="Walls" x="1056" y="1152" width="32" height="64"/>
  <object id="30" type="Walls" x="1072" y="1200" width="352" height="32"/>
  <object id="31" type="Walls" x="1136" y="1232" width="32" height="304"/>
  <object id="32" type="Walls" x="1168" y="1504" width="1072" height="32"/>
  <object id="33" type="Walls" x="1824" y="1216" width="32" height="512"/>
  <object id="34" type="Walls" x="2224" y="1328" width="272" height="32"/>
  <object id="35" type="Walls" x="1856" y="240" width="256" height="32"/>
  <object id="36" type="Walls" x="1840" y="272" width="32" height="752"/>
  <object id="37" type="Walls" x="1872" y="992" width="48" height="32"/>
  <object id="38" type="Walls" x="1872" y="672" width="624" height="32"/>
  <object id="39" type="Walls" x="1456" y="624" width="400" height="32"/>
 </objectgroup>
 <layer id="1" name="Walls" width="40" height="30">
  <data encoding="csv">
6,7,7,7,7,7,7,7,7,7,7,7,7,7,7,7,7,7,7,7,7,7,7,7,7,7,7,7,7,7,7,7,7,7,7,7,7,7,7,2147483654,
10,11,11,11,11,11,11,11,11,11,11,11,11,11,11,11,11,11,11,11,11,11,11,11,11,11,11,11,11,11,11,11,11,11,11,11,11,11,11,2147483658,
10,0,0,0,0,0,0,0,0,2684354568,0,0,0,0,0,0,10,0,0,0,0,0,0,0,0,0,0,0,0,0,0,0,0,0,0,0,0,0,0,2147483658,
10,0,0,0,0,0,0,0,0,2684354568,0,0,0,0,0,0,10,0,0,0,0,0,0,0,0,0,0,0,0,0,0,0,0,0,0,0,0,0,0,2147483658,
10,0,0,0,0,0,0,0,0,2684354568,0,0,0,0,0,0,10,0,0,0,0,0,0,0,0,0,0,0,0,12,8,8,8,0,0,0,0,0,0,2147483658,
10,0,0,0,0,0,0,0,0,2684354568,0,0,0,0,0,0,10,0,0,0,0,0,0,0,0,0,0,0,0,1610612744,0,0,0,0,0,0,0,0,0,2147483658,
10,0,0,0,0,0,0,0,0,2684354568,0,0,0,0,0,0,10,0,0,0,0,0,0,0,0,0,0,0,0,1610612744,0,0,0,0,0,0,0,0,0,2147483658,
10,0,0,0,0,0,0,0,0,0,0,0,0,0,0,0,10,8,8,8,8,0,0,0,0,0,0,0,0,1610612744,0,0,0,0,0,0,0,0,0,2147483658,
10,0,0,0,0,0,0,0,0,0,0,0,15,15,15,15,2147483660,0,0,0,0,0,0,0,0,0,0,0,0,1610612744,0,0,0,0,0,0,0,0,0,2147483658,
10,8,8,8,8,8,8,8,2147483660,0,0,0,0,0,0,0,10,0,0,0,0,0,0,0,0,0,0,0,0,1610612744,0,0,0,0,0,0,0,0,0,2147483658,
10,0,0,0,0,0,0,0,0,0,0,0,0,0,0,0,10,0,0,0,0,0,0,8,8,8,8,8,8,1073741836,3221225487,3221225487,3221225487,3221225487,3221225487,3221225487,3221225487,3221225487,3221225487,2147483658,
10,0,0,0,0,0,0,0,0,0,0,0,0,0,0,0,10,0,0,0,0,0,0,0,0,0,0,0,0,1610612744,0,0,0,0,0,0,0,0,0,2147483658,
10,0,0,0,0,0,0,0,0,0,0,0,0,0,0,0,10,0,0,0,0,0,0,0,0,0,0,0,0,1610612744,0,0,0,0,0,0,0,0,0,2147483658,
10,0,0,0,0,0,0,0,0,0,0,0,0,0,0,0,6,7,7,7,7,7,2147483654,0,0,0,0,0,0,1610612744,0,0,0,0,0,0,0,0,0,2147483658,
10,8,8,8,8,8,8,8,8,8,2147483654,0,0,0,0,0,10,11,11,11,11,11,2147483658,0,0,0,0,0,0,1610612744,0,0,0,0,0,0,0,0,0,2147483658,
10,0,0,0,0,0,0,0,0,0,3221225482,0,0,0,0,0,10,0,0,0,0,0,2147483658,0,0,0,0,0,0,1073741836,0,0,0,0,0,0,0,0,0,2147483658,
10,0,0,0,0,0,0,0,0,0,3221225482,0,0,0,0,0,0,0,0,0,0,0,0,0,0,0,0,0,0,0,0,0,0,0,0,0,0,0,0,2147483658,
10,0,0,0,0,0,0,0,0,0,3221225482,0,0,0,0,0,0,0,0,0,0,0,0,0,0,0,0,0,0,0,0,0,0,0,0,0,0,0,0,2147483658,
10,0,0,0,0,0,0,0,0,0,3221225482,0,0,0,0,0,10,0,0,0,0,0,2147483658,0,0,0,0,0,0,0,0,0,0,0,0,0,0,0,0,2147483658,
10,0,0,0,0,0,0,0,0,0,3221225482,0,0,0,0,0,14,15,12,15,15,15,2147483662,0,0,0,0,0,2684354568,0,0,0,0,0,0,0,0,0,0,2147483658,
10,0,0,0,0,0,0,0,0,3758096394,1610612746,1610612746,1610612746,0,0,0,0,0,2147483658,0,0,0,0,0,0,0,0,0,2684354568,0,0,0,0,0,0,0,0,0,0,2147483658,
10,0,0,0,0,0,0,0,0,0,0,0,0,0,0,0,0,0,2147483658,0,0,0,0,0,0,0,0,0,2684354568,0,0,0,0,0,0,8,8,8,8,2147483658,
10,0,0,0,0,0,0,0,0,0,0,0,0,0,0,0,0,0,2147483658,0,0,0,0,0,0,0,0,0,2684354568,0,0,0,0,0,0,0,0,0,0,2147483658,
10,0,0,0,0,0,0,0,0,0,1073741834,0,0,0,0,0,0,0,1073741836,3221225480,3221225480,3221225480,3221225480,3221225480,3221225480,3221225480,3221225480,3221225480,3758096396,3221225487,3221225487,3221225487,3221225487,3221225487,3221225487,0,0,0,0,2147483658,
10,0,0,1073741834,0,0,0,0,0,0,12,15,15,15,15,0,0,0,0,0,0,0,0,0,0,0,0,0,2684354568,0,0,0,0,0,0,0,0,0,0,2147483658,
10,0,0,1073741834,0,0,0,0,0,0,3221225482,0,0,0,0,0,0,0,0,0,0,0,0,0,0,0,0,0,2684354568,0,0,0,0,0,0,0,0,0,0,2147483658,
10,0,0,1073741834,536870922,536870922,536870922,0,0,0,3221225482,0,0,0,0,0,0,0,0,0,0,0,0,0,0,0,0,0,2684354568,0,0,0,0,0,0,0,0,0,0,2147483658,
10,0,0,1073741834,0,0,0,0,0,0,3221225482,0,0,0,0,0,0,0,0,0,2684354568,0,0,0,0,0,0,0,0,0,0,0,0,0,0,0,0,0,0,2147483658,
10,0,0,1073741834,0,0,0,0,0,0,3221225482,0,0,0,0,0,0,0,0,0,2684354568,0,0,0,0,0,0,0,0,0,0,0,0,0,0,0,0,0,0,2147483658,
14,15,15,15,15,15,15,15,15,15,15,15,15,15,15,15,15,15,15,15,15,15,15,15,15,15,15,15,15,15,15,15,15,15,15,15,15,15,15,2147483662
</data>
 </layer>
 <objectgroup id="3" name="Spawnpoint" offsetx="-0.181818" offsety="1.81818">
  <object id="5" name="Player" type="Player" x="1216.53" y="1022.42" width="63.9608" height="63.9744"/>
  <object id="40" name="Stone" type="Stone" x="1680" y="400" width="32" height="32"/>
  <object id="41" name="Stone" type="Stone" x="2016" y="560" width="32" height="32"/>
  <object id="42" name="Stone" type="Stone" x="1664" y="912" width="32" height="32"/>
  <object id="43" name="Stone" type="Stone" x="2048" y="816" width="32" height="32"/>
  <object id="44" name="Stone" type="Stone" x="2272" y="1664" width="32" height="32"/>
  <object id="45" name="Stone" type="Stone" x="1456" y="1344" width="32" height="32"/>
  <object id="46" name="Stone" type="Stone" x="1072" y="1712" width="32" height="32"/>
  <object id="47" name="Stone" type="Stone" x="896" y="784" width="32" height="32"/>
  <object id="48" name="Stone" type="Stone" x="848" y="288" width="32" height="32"/>
  <object id="50" name="Stone" type="Stone" x="272" y="416" width="32" height="32"/>
  <object id="51" name="Stone" type="Stone" x="160" y="1312" width="32" height="32"/>
  <object id="52" name="Stone" type="Stone" x="480" y="1584" width="32" height="32"/>
  <object id="53" name="Mars mineral" type="Stone" x="1360" y="208" width="32" height="32"/>
  <object id="54" name="Mars mineral" type="Stone" x="336" y="1040" width="32" height="32"/>
  <object id="55" name="Mars mineral" type="Stone" x="2320" y="1040" width="32" height="32"/>
  <object id="56" name="Stone" type="Stone" x="1680" y="1760" width="32" height="32"/>
  <object id="57" name="Mars keeper" type="Keeper" x="1616" y="208" width="80" height="80"/>
  <object id="58" name="Mars keeper" type="Keeper" x="2320" y="768" width="80" height="80"/>
  <object id="59" name="Mars keeper" type="Keeper" x="112" y="976" width="80" height="80"/>
 </objectgroup>
</map>
