<?xml version="1.0" encoding="UTF-8"?>
<map version="1.10" tiledversion="1.10.2" orientation="orthogonal" renderorder="right-down" width="40" height="30" tilewidth="64" tileheight="64" infinite="0" nextlayerid="5" nextobjectid="3">
 <tileset firstgid="1" source="Main tileset.tsx"/>
 <layer id="1" name="Floor" width="40" height="30">
  <data encoding="csv">
0,0,0,0,0,0,0,0,0,0,0,0,0,0,0,0,0,0,0,0,0,0,0,0,0,0,0,0,0,0,0,0,0,0,0,0,0,0,0,0,
0,0,0,0,0,0,0,0,0,0,0,0,0,0,0,0,0,0,0,0,0,0,0,0,0,0,0,0,0,0,0,0,0,0,0,0,0,0,0,0,
0,1,1,1,1,1,1,1,1,2,1,1,1,1,1,1,1,1,1,1,1,1,1,1,1,1,1,1,1,1,1,1,1,1,1,1,1,2,1,0,
0,1,1,1,1,2,1,1,1,1,1,1,1,1,1,1,1,1,1,1,1,1,1,1,1,1,1,1,1,1,1,1,1,1,3,1,1,1,1,0,
0,1,2,3,1,1,1,1,1,1,1,1,1,1,1,1,1,1,1,1,1,1,1,1,1,1,1,1,1,1,2,1,1,1,1,1,1,1,1,0,
0,1,1,1,1,1,1,1,1,2,1,1,1,1,1,1,1,1,1,1,1,1,1,1,1,1,1,1,1,1,1,1,1,1,1,1,1,2,1,0,
0,1,1,2,1,1,1,1,1,1,1,1,1,1,1,1,1,1,1,1,1,1,1,1,1,1,1,1,1,1,1,1,1,1,1,1,1,1,1,0,
0,1,1,1,1,1,1,1,1,1,1,1,1,1,1,1,1,1,1,1,1,1,1,1,1,1,1,1,1,1,1,1,1,1,1,1,1,1,1,0,
0,1,1,1,1,1,1,1,1,2,1,1,1,1,1,1,1,1,1,1,1,1,1,1,1,1,1,1,1,1,1,1,1,1,1,1,1,1,1,0,
0,1,1,1,1,2,1,1,1,1,1,1,1,1,1,1,1,1,1,1,1,1,1,1,1,1,1,1,1,1,1,1,1,1,1,1,1,1,1,0,
0,1,1,1,1,1,1,1,1,1,1,1,1,1,1,1,1,1,1,1,1,1,1,1,1,1,1,1,1,1,1,1,1,1,1,1,1,1,1,0,
0,1,1,1,1,1,1,1,1,1,1,1,1,1,1,1,1,1,1,1,1,1,1,1,1,1,1,1,1,1,1,1,1,1,1,1,1,1,1,0,
0,1,1,1,1,1,1,1,2,1,1,1,1,1,1,1,1,1,1,1,1,1,1,1,1,1,1,1,1,1,1,1,1,1,1,1,1,1,1,0,
0,1,1,1,2,1,1,1,1,1,1,1,1,1,1,1,1,1,1,1,1,1,1,1,1,1,1,1,1,1,1,1,1,1,1,1,1,1,1,0,
0,1,1,1,1,1,1,1,1,1,1,1,1,1,1,1,1,1,5,4,5,4,5,1,1,1,1,1,1,1,1,1,1,1,1,1,1,1,1,0,
0,1,1,1,1,1,1,1,1,1,1,1,1,1,1,1,1,1610612738,4,4,3,4,5,2684354562,1,1,1,1,1,1,1,1,1,1,1,1,1,1,1,0,
0,1,1,1,1,1,1,1,1,1,1,1,1,1,1,1,1,1610612738,4,5,4,5,4,2684354562,1,1,1,1,1,1,1,1,1,1,1,1,1,1,1,0,
0,1,1,1,1,1,1,2,1,1,1,1,1,1,1,1,1,1,5,4,4,5,4,1,1,1,1,1,1,1,1,1,1,1,1,1,1,1,1,0,
0,1,1,1,1,1,1,1,1,1,1,1,1,1,1,1,1,1,1,1,1,1,1,1,1,1,1,1,1,1,1,1,1,1,1,1,1,1,1,0,
0,1,1,2,1,1,1,1,1,1,1,1,1,1,1,1,1,1,1,1,1,1,1,1,1,1,1,1,1,1,1,1,1,1,1,1,1,1,1,0,
0,1,1,1,1,3,1,1,1,1,1,1,1,1,1,1,1,1,1,1,1,1,1,1,1,1,1,1,1,1,1,1,1,1,1,1,1,1,1,0,
0,1,1,1,1,1,1,1,2,1,1,1,1,1,1,1,1,1,1,1,1,1,1,1,1,1,1,1,1,1,1,1,1,1,1,2,1,2,1,0,
0,1,1,1,1,1,1,1,1,1,1,1,1,1,1,1,1,1,1,1,1,1,1,1,1,1,1,1,1,1,1,1,2,1,1,1,1,1,1,0,
0,1,1,1,1,2,1,1,1,1,1,1,1,1,1,1,1,1,1,1,1,1,1,1,1,1,1,1,1,1,1,1,1,1,1,1,1,1,1,0,
0,1,1,2,1,1,1,1,1,1,1,1,1,1,1,1,1,1,1,1,1,1,1,1,1,1,1,1,1,1,1,1,1,1,1,3,1,1,1,0,
0,1,1,1,1,1,1,2,1,1,1,1,1,1,1,1,1,1,1,1,1,1,1,1,1,1,1,1,1,1,1,1,1,1,1,1,1,1,1,0,
0,1,1,1,1,1,1,1,1,1,1,1,1,1,1,1,1,1,1,1,1,1,1,1,1,1,1,1,1,1,1,1,1,2,1,1,1,1,1,0,
0,1,2,1,1,1,1,1,1,1,1,2,1,1,1,1,1,1,1,1,1,1,1,1,1,1,1,1,1,1,2,1,1,1,1,1,1,2,1,0,
0,1,1,1,1,1,1,1,1,1,1,1,1,1,1,1,1,1,1,1,1,1,1,1,1,1,1,1,1,1,1,1,1,1,1,1,1,1,1,0,
0,0,0,0,0,0,0,0,0,0,0,0,0,0,0,0,0,0,0,0,0,0,0,0,0,0,0,0,0,0,0,0,0,0,0,0,0,0,0,0
</data>
 </layer>
 <objectgroup id="4" name="Spawnpoint" class="Player" offsetx="0.333333" offsety="0.666667">
  <object id="2" name="Player" type="Player" x="1280" y="957.333" width="64" height="64"/>
 </objectgroup>
 <layer id="2" name="Walls" width="40" height="30">
  <data encoding="csv">
6,7,7,7,7,7,7,7,7,7,7,7,7,7,7,7,7,7,7,7,7,7,7,7,7,7,7,7,7,7,7,7,7,7,7,7,7,7,7,2147483654,
10,11,11,11,11,11,11,11,11,11,11,11,11,11,11,11,11,11,11,11,11,11,11,11,11,11,11,11,11,11,11,11,11,11,11,11,11,11,11,2147483658,
10,0,0,0,0,0,0,0,0,0,0,2147483658,0,0,0,0,0,0,0,0,0,10,0,0,0,0,0,10,0,0,0,0,0,0,0,0,0,0,0,2147483658,
10,0,0,0,0,0,0,0,0,0,0,2147483658,0,0,0,0,0,0,0,0,0,10,0,0,0,0,0,10,0,0,0,0,0,0,0,0,0,0,0,2147483658,
10,0,0,0,0,0,0,0,0,0,0,2147483658,0,0,0,0,0,0,0,0,0,10,0,0,0,0,0,10,0,0,0,0,0,0,0,0,0,0,0,2147483658,
10,0,0,0,0,0,3221225482,0,0,0,0,2147483658,0,0,0,0,0,0,0,0,0,10,0,0,0,0,0,10,0,0,0,0,0,0,0,0,0,0,0,2147483658,
10,0,0,0,0,0,3221225482,0,0,0,0,2147483658,0,0,0,12,0,0,0,0,0,10,0,0,0,0,0,10,0,0,0,0,0,0,0,0,0,0,0,2147483658,
10,8,8,8,8,8,1610612750,0,0,0,0,2147483658,0,0,0,3221225482,0,0,0,0,0,10,0,0,0,0,0,10,0,0,0,0,0,12,8,8,8,8,8,2147483658,
10,0,0,0,0,0,0,0,0,0,0,2147483658,0,0,0,1073741836,3221225480,3221225480,3221225480,3221225480,3221225480,3221225484,0,0,0,0,0,3221225484,0,0,0,0,0,0,0,0,0,0,0,2147483658,
10,0,0,0,0,0,0,0,0,0,0,2147483658,0,0,0,0,0,0,0,3221225482,0,0,0,0,0,0,0,0,0,0,0,0,0,0,0,0,0,0,0,2147483658,
10,0,0,0,0,0,0,0,0,0,0,2147483658,0,0,0,0,0,0,0,3221225482,0,0,0,0,0,0,0,0,0,0,0,0,0,0,0,0,0,0,0,2147483658,
10,8,8,0,0,0,0,0,0,0,0,2147483658,0,0,0,0,0,0,0,0,0,0,0,0,0,0,0,0,0,0,0,0,0,3221225482,0,0,0,0,0,2147483658,
10,0,0,0,0,0,0,0,0,0,0,2147483658,0,0,0,0,0,6,7,7,7,7,7,2147483654,0,0,0,0,0,0,0,0,0,3221225482,0,0,0,0,0,2147483658,
10,0,0,0,0,0,0,0,0,0,1610612746,1610612750,0,0,0,0,0,10,11,11,11,11,11,2147483658,0,0,0,0,0,0,0,0,0,3221225482,0,0,0,0,0,2147483658,
10,0,0,0,0,0,0,0,0,0,0,0,0,0,0,0,0,10,0,0,0,0,0,2147483658,0,0,0,0,0,0,0,0,0,3221225482,0,0,0,0,0,2147483658,
10,0,0,0,0,0,0,0,0,0,0,0,0,0,0,0,0,0,0,0,0,0,0,0,0,0,0,0,0,0,0,0,0,3221225482,0,0,0,0,0,2147483658,
10,1610612746,1610612746,1610612746,1610612746,1610612746,1610612746,1610612746,1610612746,2684354572,0,0,0,0,0,0,0,0,0,0,0,0,0,0,0,0,0,0,0,0,0,0,0,3221225482,0,0,0,0,0,2147483658,
10,0,0,0,0,0,0,0,0,2684354568,0,0,0,0,0,0,0,10,0,0,0,0,0,2147483658,0,0,8,8,8,8,8,8,8,3221225482,0,0,0,0,0,2147483658,
10,0,0,0,0,0,0,0,0,2684354568,0,0,0,0,0,0,0,14,15,15,15,15,15,2147483662,0,0,0,0,0,0,0,0,0,3221225482,0,0,0,0,0,2147483658,
10,0,0,0,0,0,0,0,0,2684354568,0,0,0,0,0,0,0,0,0,0,0,0,0,0,0,0,0,0,0,0,12,8,8,8,8,8,8,8,8,2147483658,
10,0,0,0,0,0,0,0,0,2684354568,8,8,8,8,8,0,0,0,0,0,0,0,0,0,0,0,0,0,0,0,3221225482,0,0,0,0,0,0,0,0,2147483658,
10,0,0,0,0,0,0,0,0,2684354568,0,0,0,0,0,0,0,0,0,0,10,0,0,0,0,0,0,0,0,0,3221225482,0,0,0,0,0,0,0,0,2147483658,
10,0,0,0,0,0,0,0,0,2684354568,0,0,0,0,0,0,0,0,0,0,10,0,0,0,0,0,0,0,0,0,3221225482,0,0,0,0,0,0,0,0,2147483658,
10,0,0,0,0,0,0,0,0,2684354568,0,0,0,0,0,0,0,1610612746,1610612746,1610612746,2684354572,8,8,8,8,0,0,0,0,0,3221225482,0,0,0,0,0,0,0,0,2147483658,
10,0,0,0,0,0,0,0,0,0,0,0,0,0,0,0,0,0,0,0,10,0,0,0,0,0,0,0,0,0,3221225482,0,0,0,0,0,0,0,0,2147483658,
10,0,0,0,0,0,0,0,0,0,0,0,0,0,0,10,0,0,0,0,10,0,0,0,0,0,0,0,0,0,1073741836,0,0,0,0,0,0,0,0,2147483658,
10,2684354570,2684354570,2684354570,0,0,0,0,0,0,0,0,0,0,0,10,0,0,0,0,10,0,0,0,0,0,0,0,0,0,0,0,0,0,0,0,0,0,0,2147483658,
10,0,0,0,0,0,0,0,0,0,0,0,0,0,0,10,0,0,0,0,10,0,0,0,0,0,0,0,0,0,0,0,0,0,0,0,0,0,0,2147483658,
10,0,0,0,0,0,0,0,0,0,0,0,0,0,0,10,0,0,0,0,10,0,0,0,0,0,0,0,0,0,0,0,0,0,0,0,0,0,0,2147483658,
14,15,15,15,15,15,15,15,15,15,15,15,15,15,15,15,15,15,15,15,15,15,15,15,15,15,15,15,15,15,15,15,15,15,15,15,15,15,15,2147483662
</data>
 </layer>
</map>
